X: 17620
T: Hold
R: slip jig
M: 9/8
K: Eminor
G2 F G2 D EFG|A2 G A2 F FGA|B2 d e2 d BAB|dBd e2 e e3|
e2 f gaf ede|f2 g gfg aga|b2 b bag e2 d|dBd e2 e g3|
B2 B A2 E FGA|BAB dBd e2 e|efg g2 e ede|efB d2 e f3|
g2 f g2 a gfe|deB deA B3|B2 A AGF E2 D|EFB, D2 D F3|
G2 A AGF FED|E2 F G2 F G2 A|A2 B B2 B cBA|GAF EFD E3|
F2 G AGA B e2|e2 f g2 a agf|g2 a b2 B dBA|FBd e2 e e3|

